svg/furkot/freepik/amusementpark.svg

<svg viewBox="0 0 512 512" xmlns="http://www.w3.org/2000/svg"><path d="m416.405 454.376c0 13.422 10.882 24.303 24.304 24.303s24.304-10.881 24.304-24.303v-136.257c-16.695 4.535-32.937 8.485-48.608 11.92zm-348.617-178.539-43.502.031c-13.422.009-24.296 10.897-24.286 24.32.01 13.415 10.89 24.286 24.304 24.286h.018l16.184-.01v129.912c0 13.422 10.882 24.303 24.304 24.303s24.304-10.881 24.304-24.303v-129.946l27.816-.02c-19.439-12.749-36.177-29.289-49.142-48.573z"/><path d="m511.943 248.919c-4.054-12.796-17.716-19.882-30.509-15.826-147.095 46.616-267.585 42.705-268.761 42.661-.315-.013-.632-.019-.948-.019-53.133 0-96.361-43.229-96.361-96.362s43.228-96.361 96.361-96.361c52.765 0 96.36 42.921 96.36 96.361 0 24.562-9.325 47.547-25.28 64.982h.002c18.03-1.652 38.991-4.152 62.174-7.921 7.531-17.522 11.711-36.811 11.711-57.061 0-80.043-65.16-144.969-144.967-144.969-79.935 0-144.969 65.034-144.969 144.969 0 79.785 64.781 144.721 144.509 144.969 5.296.175 11.891.175 17.189.114v129.916c0 13.423 10.882 24.304 24.304 24.304s24.304-10.881 24.304-24.304c0-16.269 0-116.361 0-132.167 52.154-4.003 130.563-14.734 219.053-42.779 12.798-4.051 19.884-17.711 15.828-30.507z"/></svg>

<svg xmlns="http://www.w3.org/2000/svg" viewBox="0 0 512 512"><path d="M416.405 454.376C416.405 467.798 427.287 478.679 440.709 478.679S465.013 467.798 465.013 454.376V318.119C448.318 322.654 432.076 326.604 416.405 330.039V454.376ZM67.788 275.837L24.286 275.868C10.864 275.877-0.01 286.765 0 300.188 0.01 313.603 10.89 324.474 24.304 324.474 24.309 324.474 24.315 324.474 24.322 324.474L40.506 324.464V454.376C40.506 467.798 51.388 478.679 64.81 478.679S89.114 467.798 89.114 454.376V324.43L116.93 324.41C97.491 311.661 80.753 295.121 67.788 275.837Z"/><path d="M511.943 248.919C507.889 236.123 494.227 229.037 481.434 233.093 334.339 279.709 213.849 275.798 212.673 275.754 212.358 275.741 212.041 275.735 211.725 275.735 158.592 275.735 115.364 232.506 115.364 179.373 115.364 126.24 158.592 83.012 211.725 83.012 264.49 83.012 308.085 125.933 308.085 179.373 308.085 203.935 298.76 226.92 282.805 244.355L282.807 244.355C300.837 242.703 321.798 240.203 344.981 236.434 352.512 218.912 356.692 199.623 356.692 179.373 356.692 99.33 291.532 34.404 211.725 34.404 131.79 34.404 66.756 99.438 66.756 179.373 66.756 259.158 131.537 324.094 211.265 324.342 216.561 324.517 223.156 324.517 228.454 324.456 228.454 350.773 228.454 427.799 228.454 454.372 228.454 467.795 239.336 478.676 252.758 478.676 266.18 478.676 277.062 467.795 277.062 454.372 277.062 438.103 277.062 338.011 277.062 322.205 329.216 318.202 407.625 307.471 496.115 279.426 508.913 275.375 515.999 261.715 511.943 248.919Z"/></svg>
